X:1
T:Title
%%score { ( 1 3 ) | ( 2 4 ) }
L:1/8
Q:1/4=100
M:4/4
K:Bb
V:1 treble nm="Grand Piano"
V:3 treble 
V:2 bass 
V:4 bass 
V:1
 [GB]2 [GB][GB] [Ge]2 [EB]2 | [GB]4 z4 | _A2 A[DA] [DB]2 [DF]2 | [EG]6 z2 | %4
w: Robert~Harkness * * * *||||
 [GB]2 [GB][GB] [Ge]2 [EB]2 | [GB]4 z4 | _A2 AA d2 B2 | [Ge]6 z2 |] %8
w: ||||
V:2
 [E,E]2 [E,D][E,C] [E,B,]2 [E,G,]2 | B,2 z2[K:treble] [B,DF]4 | %2
 [B,DF]2[K:bass] [B,CE][B,,B,] [B,,F,]2 [B,,B,]2 | [E,B,]6 z2 | [E,E]2 [E,D][E,C] [E,B,]2 [E,G,]2 | %5
 B,2 z2[K:treble] [B,DF]4 | [B,DF]2 [B,CE][B,E] [B,F_A]2 [B,DA]2 | [E,E]6 z2 |] %8
V:3
 x8 | z2 C2 _A4 | x8 | x8 | x8 | z2 C2 _A4 | x8 | x8 |] %8
V:4
 x8 | B,,4[K:treble] z4 | x2[K:bass] x6 | x8 | x8 | B,,4[K:treble] z4 | x8 | x8 |] %8

